client/public/img/game/shared/particles/casings/casing_762x39mm.svg

<?xml version="1.0" encoding="UTF-8" standalone="no"?>
<svg
   width="12"
   height="35"
   viewBox="0 0 12 35"
   fill="none"
   version="1.1"
   id="svg4"
   xmlns="http://www.w3.org/2000/svg"
   xmlns:svg="http://www.w3.org/2000/svg">
  <defs
     id="defs4" />
  <path
     d="M1.28906 30.9498L1.82246 8.1986L2.43496 6.11516V1.3649H9.60202V6.11516L10.2145 8.1986L10.7479 30.9498L10.5396 31.5332H1.49724L1.28906 30.9498Z"
     fill="#B57921"
     id="path1" />
  <path
     d="M1.28906 33.4084V32.3666H10.7479V33.4084L10.5396 33.6167H1.49741L1.28906 33.4084Z"
     fill="#B57921"
     id="path2" />
  <rect
     x="2.03516"
     y="32.3667"
     width="0.833378"
     height="7.96711"
     transform="rotate(-90 2.03516 32.3667)"
     fill="#97651C"
     stroke="#563A10"
     stroke-miterlimit="3.99393"
     id="rect2" />
  <path
     d="M1.82227 8.19868H10.2143M2.43477 6.11523H9.60183"
     stroke="#563A10"
     stroke-width="2"
     stroke-miterlimit="3.99393"
     id="path3" />
  <path
     d="M1.28906 30.9497L1.82246 8.19845L2.43496 6.115V1.36475H9.60202V6.115L10.2145 8.19845L10.7479 30.9497L10.5396 31.533H10.0023V32.3665H10.7479V33.4082L10.5396 33.6165H1.49741L1.28906 33.4082V32.3665H2.03516V31.533H1.49724L1.28906 30.9497Z"
     stroke="#563A10"
     stroke-width="2"
     stroke-miterlimit="3.99393"
     id="path4" />
</svg>

<svg xmlns="http://www.w3.org/2000/svg" width="12" height="35" fill="none"><path fill="#B57921" d="m1.29 30.95.532-22.751.613-2.084v-4.75h7.167v4.75l.612 2.084.534 22.75-.208.584H1.497zM1.29 33.408v-1.041h9.458v1.041l-.208.209H1.497z"/><path fill="#97651C" stroke="#563A10" stroke-miterlimit="3.994" d="M2.035 32.367v-.833h7.967v.833z"/><path stroke="#563A10" stroke-miterlimit="3.994" stroke-width="2" d="M1.822 8.199h8.392m-7.78-2.084h7.168M1.29 30.95l.532-22.752.613-2.083v-4.75h7.167v4.75l.612 2.083.534 22.752-.208.583h-.538v.834h.746v1.041l-.208.209H1.497l-.208-.209v-1.041h.746v-.834h-.538z"/></svg>
